svgs/sharp-solid/scanner-touchscreen.svg

<svg xmlns="http://www.w3.org/2000/svg" viewBox="0 0 512 512"><!--! Font Awesome Pro 6.6.0 by @fontawesome - https://fontawesome.com License - https://fontawesome.com/license (Commercial License) Copyright 2024 Fonticons, Inc. --><path d="M192 0l0 64-64 0 0-64 64 0zM352 0l0 64-64 0 0-64 64 0zM224 0l32 0 0 64-32 0 0-64zM416 0l0 288-32 0L384 0l32 0zm32 0l64 0 0 288-64 0L448 0zM0 96l352 0 0 416L0 512 0 96zm64 64l0 288 224 0 0-288L64 160z"/></svg>

<svg xmlns="http://www.w3.org/2000/svg" viewBox="0 0 512 512"><!--! Font Awesome Pro 6.4.2 by @fontawesome - https://fontawesome.com License - https://fontawesome.com/license (Commercial License) Copyright 2023 Fonticons, Inc. --><path d="M192 0V64H128V0h64zM352 0V64H288V0h64zM224 0h32V64H224V0zM416 0V288H384V0h32zm32 0h64V288H448V0zM0 96H352V512H0V96zm64 64V448H288V160H64z"/></svg>
